picto/escalator-down-left.svg

<svg class="color-immutable" width="24" height="24" viewBox="0 0 24 24" fill="none" xmlns="http://www.w3.org/2000/svg"><path d="M0 22.5V1.5C0 0.675 0.675 0 1.5 0H22.5C23.325 0 24 0.675 24 1.5V22.5C24 23.325 23.325 24 22.5 24H1.5C0.675 24 0 23.325 0 22.5Z" fill="#2D327D"/><path d="M13.093 4.978C13.631 4.978 14.068 4.541 14.068 4.003C14.068 3.465 13.631 3.028 13.093 3.028C12.555 3.028 12.118 3.465 12.118 4.003C12.118 4.541 12.554 4.978 13.093 4.978Z" fill="white"/><path d="M9.33199 7.405C9.86999 7.405 10.307 6.968 10.307 6.43C10.307 5.892 9.86999 5.455 9.33199 5.455C8.79399 5.455 8.35699 5.892 8.35699 6.43C8.35699 6.968 8.79399 7.405 9.33199 7.405Z" fill="white"/><path d="M5.57101 7.943C5.03301 7.943 4.59601 8.38 4.59601 8.918C4.59601 9.456 5.03301 9.893 5.57101 9.893C6.10901 9.893 6.54601 9.456 6.54601 8.918C6.54601 8.38 6.10901 7.943 5.57101 7.943Z" fill="white"/><path d="M11.151 8.382C11.126 8.448 11.113 8.518 11.113 8.589C11.113 8.91 11.373 9.17 11.694 9.17C11.935 9.17 12.151 9.021 12.237 8.796L12.936 6.962L13.286 7.096L12.972 7.92L14.25 7.078V6.443C14.25 5.814 13.739 5.303 13.11 5.303C12.637 5.303 12.213 5.595 12.045 6.037L11.151 8.382Z" fill="white"/><path d="M7.40098 10.852C7.37598 10.918 7.36298 10.988 7.36298 11.059C7.36298 11.38 7.62298 11.64 7.94398 11.64C8.18498 11.64 8.40098 11.491 8.48698 11.266L9.18598 9.433L9.53598 9.567L9.22198 10.39L10.5 9.549V8.913C10.5 8.284 9.98898 7.773 9.35998 7.773C8.88698 7.773 8.46298 8.065 8.29498 8.507L7.40098 10.852Z" fill="white"/><path d="M6.74998 12.019V11.383C6.74998 10.754 6.23898 10.243 5.60998 10.243C5.13698 10.243 4.71298 10.535 4.54498 10.977L3.65098 13.322C3.62598 13.388 3.61298 13.458 3.61298 13.529C3.61298 13.85 3.87298 14.11 4.19398 14.11C4.43498 14.11 4.65098 13.961 4.73698 13.736L5.43598 11.903L5.78598 12.037L5.47198 12.86L6.74998 12.019Z" fill="white"/><path d="M18.375 12.75C19.824 12.75 21 11.574 21 10.125C21 8.676 19.824 7.5 18.375 7.5H15.379C15.159 7.5 14.944 7.564 14.76 7.686L3 15.432V21L15.525 12.75H18.375Z" fill="white"/></svg>

<svg class="color-immutable" width="24" height="24" viewBox="0 0 24 24" fill="none" xmlns="http://www.w3.org/2000/svg"><g clip-path="url(#a)"><path d="M0 22.5v-21C0 .675.675 0 1.5 0h21c.825 0 1.5.675 1.5 1.5v21c0 .825-.675 1.5-1.5 1.5h-21C.675 24 0 23.325 0 22.5Z" fill="#2D327D"/><path d="M13.093 4.978a.976.976 0 1 0-.001-1.951.976.976 0 0 0 .001 1.951ZM9.332 7.405a.976.976 0 1 0-.001-1.951.976.976 0 0 0 .001 1.951ZM5.571 7.943a.976.976 0 1 0 .001 1.951.976.976 0 0 0-.001-1.951ZM11.151 8.382a.58.58 0 1 0 1.086.414l.699-1.834.35.134-.314.824 1.278-.842v-.635a1.14 1.14 0 0 0-2.205-.406l-.894 2.345ZM7.401 10.852a.58.58 0 1 0 1.086.414l.699-1.833.35.134-.314.823 1.278-.841v-.636a1.14 1.14 0 0 0-2.205-.406l-.894 2.345ZM6.75 12.019v-.636a1.14 1.14 0 0 0-2.205-.406l-.894 2.345a.58.58 0 1 0 1.086.414l.699-1.833.35.134-.314.823 1.278-.841ZM18.375 12.75a2.626 2.626 0 0 0 0-5.25h-2.996c-.22 0-.435.064-.619.186L3 15.432V21l12.525-8.25h2.85Z" fill="#fff"/></g><defs><clipPath id="a"><path fill="#fff" d="M0 0h24v24H0z"/></clipPath></defs></svg>
